libs/ui/packages/crypto-icons/src/svg/LSK.svg

<svg width="24" height="24" viewBox="0 0 24 24" fill="none">
<path d="M10.6869 19.0935C10.6764 19.104 10.6554 19.1145 10.6449 19.125H9.48088C9.45988 19.125 9.44938 19.1145 9.43888 19.104L6.00764 15.228C6.00264 15.2184 6.00003 15.2077 6.00003 15.1969C6.00003 15.186 6.00264 15.1754 6.00764 15.1658L10.2811 7.7895C10.3021 7.75875 10.3539 7.75875 10.3749 7.7895L11.5704 9.858C11.5809 9.8685 11.5809 9.8895 11.5704 9.9105L8.67988 14.8942C8.66938 14.9145 8.67988 14.9355 8.69038 14.9565L10.4161 16.8998C10.4277 16.9109 10.4423 16.9182 10.4581 16.9208H12.4959C12.5484 16.9208 12.5686 16.9733 12.5371 17.004L10.6869 19.0935ZM11.9544 4.9065C11.9761 4.8645 12.0279 4.8645 12.0384 4.9065L17.9956 15.144C18.0061 15.1657 17.9956 15.1867 17.9851 15.207L14.5546 19.083C14.5431 19.0941 14.5284 19.1014 14.5126 19.104H11.7264C11.6739 19.104 11.6536 19.0515 11.6851 19.0208L13.5459 16.9103L15.2926 14.946C15.3136 14.925 15.3136 14.904 15.3031 14.8837L11.9964 9.17925L10.7491 7.02675C10.7386 7.017 10.7386 6.996 10.7491 6.97425L11.9544 4.9065Z" fill="#0D4EA0"/>
</svg>

<svg width="24" height="24" viewBox="0 0 24 24" fill="none"><path fill="#0d4ea0" d="M10.687 19.094c-.01.01-.032.02-.042.031H9.48c-.021 0-.032-.01-.042-.021l-3.431-3.876a.07.07 0 0 1 0-.062L10.28 7.79c.021-.031.073-.031.094 0l1.195 2.068c.01.01.01.031 0 .053l-2.89 4.983c-.01.02 0 .041.01.063l1.726 1.943a.1.1 0 0 0 .042.02h2.038c.052 0 .073.053.041.084zm1.267-14.187c.022-.043.074-.043.084 0l5.958 10.237c.01.022 0 .043-.01.063l-3.431 3.876a.1.1 0 0 1-.042.021h-2.787c-.052 0-.072-.052-.04-.083l1.86-2.11 1.747-1.965c.02-.021.02-.042.01-.062l-3.307-5.705-1.247-2.152c-.01-.01-.01-.031 0-.053z"/></svg>
